autogermania/dist/img/svg/leather1.svg

<svg xmlns="http://www.w3.org/2000/svg" width="19" height="22"><path fill-rule="evenodd" fill="#FFF" d="M18.089 5.718a.386.386 0 01-.564.095.456.456 0 01-.089-.607c.101-.148.201-.29.299-.424l-.208-.268a8.905 8.905 0 01-.459.012h-.177v.002c-.223-.002-.403-.198-.401-.438.002-.24.185-.433.408-.431h.17c.199 0 .404-.007.612-.022a.396.396 0 01.338.155l.552.708a.462.462 0 010 .556c-.155.199-.316.42-.481.662zm-.959.752a.452.452 0 01.159.583c-.24.459-.452.934-.634 1.424a.406.406 0 01-.376.274.365.365 0 01-.149-.031.446.446 0 01-.227-.564c.196-.525.423-1.036.681-1.528a.389.389 0 01.546-.158zm-1.026 3.079a.458.458 0 01.112.424 10.73 10.73 0 00-.223 1.548c-.015.228-.191.404-.404.403h-.03a.394.394 0 01-.276-.15.455.455 0 01-.097-.316c.04-.567.121-1.13.243-1.685a.426.426 0 01.276-.325.383.383 0 01.399.101zm-1.225-5.34a.374.374 0 01-.115-.018 6.232 6.232 0 01-1.95-1.019.446.446 0 01-.179-.401.432.432 0 01.242-.36.383.383 0 01.41.057c.518.399 1.094.7 1.706.89a.437.437 0 01.287.479.414.414 0 01-.401.372zm-3.211-2.516a.396.396 0 01-.367-.197A7.584 7.584 0 0110.98.94h-.566c-.223 0-.404-.195-.404-.434 0-.24.181-.434.404-.434h.809c.151 0 .29.091.359.236.115.241.244.474.386.698a.461.461 0 01.039.438.407.407 0 01-.339.249zM10.542 20.9a.45.45 0 01-.166.587c-.223.127-.437.27-.641.429a.384.384 0 01-.472 0 5.508 5.508 0 00-.641-.429.437.437 0 01-.214-.368.447.447 0 01.19-.384.382.382 0 01.404-.014c.17.099.335.202.497.315a6.47 6.47 0 01.496-.315.39.39 0 01.547.179zM8.583.94h-.566c-.1.191-.207.377-.32.556a.4.4 0 01-.335.189.404.404 0 01-.357-.232.459.459 0 01.024-.447c.142-.224.271-.457.385-.698a.402.402 0 01.36-.236h.809c.223 0 .404.194.404.434 0 .239-.181.434-.404.434zM4.232 4.191a.346.346 0 01-.115.018.414.414 0 01-.401-.372.437.437 0 01.287-.479 5.386 5.386 0 001.706-.89.388.388 0 01.565.098.455.455 0 01-.091.606 6.216 6.216 0 01-1.951 1.019zm-.513 7.597a.397.397 0 01-.277.149h-.03c-.212.001-.388-.175-.404-.403a10.57 10.57 0 00-.221-1.548h.001a.456.456 0 01.117-.415.385.385 0 01.394-.099.423.423 0 01.277.316c.121.554.201 1.117.24 1.685a.454.454 0 01-.097.315zm-.998-3.027a.406.406 0 01-.376-.275 12.451 12.451 0 00-.634-1.425.451.451 0 01.158-.587.39.39 0 01.548.163c.258.493.485 1.003.68 1.529a.46.46 0 01-.042.404.397.397 0 01-.334.191zm-.615-4.233h-.177c-.15 0-.303-.004-.458-.012l-.209.268c.099.135.198.276.3.424a.453.453 0 01-.088.606.386.386 0 01-.565-.094 12.855 12.855 0 00-.481-.663.462.462 0 010-.554l.553-.711a.394.394 0 01.337-.155c.208.015.413.022.612.022h.162c.224-.004.408.187.412.427.004.24-.174.437-.398.442zM1.017 18.847a.385.385 0 01.571-.018c.162.164.17.437.019.612a7.676 7.676 0 01-.371.394l.298.575c.153-.049.312-.097.477-.144a.387.387 0 01.399.107.457.457 0 01.105.427.418.418 0 01-.297.305c-.269.077-.522.157-.754.237a.376.376 0 01-.124.021.399.399 0 01-.353-.223L.37 19.95a.458.458 0 01.095-.544c.195-.174.379-.361.552-.559zm1.001-.639a.452.452 0 01-.145-.593 8.21 8.21 0 00.601-1.41c.074-.226.304-.346.515-.267.21.08.321.326.247.552a9.083 9.083 0 01-.667 1.563.397.397 0 01-.349.215.367.367 0 01-.202-.06zm1.22-3.009a.4.4 0 01-.332-.186.46.46 0 01-.066-.324c.085-.521.141-1.046.167-1.574.015-.238.205-.421.427-.409.223.013.393.218.38.457a14.732 14.732 0 01-.179 1.678.413.413 0 01-.397.358zm.158 4.751c.468-.082.939-.133 1.413-.155v-.001a.398.398 0 01.358.202.46.46 0 01.016.434.402.402 0 01-.341.232c-.442.021-.881.07-1.318.146a.46.46 0 01-.064.005c-.211-.001-.385-.175-.402-.4-.017-.226.131-.427.338-.463zm2.843-.11c.479.054.952.152 1.415.295h.001c.194.06.317.263.288.478a.414.414 0 01-.4.373.398.398 0 01-.114-.017 6.865 6.865 0 00-1.275-.266.41.41 0 01-.327-.255.46.46 0 01.043-.432.392.392 0 01.369-.176zm5.108.294a7.647 7.647 0 011.416-.294h.001c.222-.026.421.147.445.386.023.238-.138.452-.36.477a6.962 6.962 0 00-1.275.265.388.388 0 01-.394-.103.458.458 0 01-.113-.417.424.424 0 01.28-.314zm2.845-.339c.473.022.945.074 1.412.155.208.036.355.238.338.463-.016.225-.191.399-.401.4a.462.462 0 01-.065-.005 10.61 10.61 0 00-1.317-.146c-.223-.01-.396-.211-.387-.451.015-.237.2-.419.42-.416zm1.566-4.606a.415.415 0 01-.399-.358c-.09-.555-.15-1.116-.178-1.678-.012-.24.159-.445.383-.459.223-.012.414.171.426.411.026.528.082 1.053.167 1.574a.46.46 0 01-.066.324.404.404 0 01-.333.186zm.25.739c.211-.079.441.041.515.267.156.49.357.962.599 1.41a.46.46 0 01.006.437.398.398 0 01-.352.221.4.4 0 01-.352-.22 9.03 9.03 0 01-.665-1.563.443.443 0 01.249-.552zm.979 4.338c.165.047.324.095.477.144l.298-.575a7.26 7.26 0 01-.371-.394.457.457 0 01-.093-.423.417.417 0 01.295-.298.388.388 0 01.388.127c.173.198.357.385.552.559a.456.456 0 01.094.544l-.616 1.19a.399.399 0 01-.353.223.376.376 0 01-.124-.021c-.232-.08-.485-.16-.754-.237a.418.418 0 01-.297-.305.459.459 0 01.104-.427.389.389 0 01.4-.107z"/><path fill-rule="evenodd" d="M20.779 6.802c-.63.697-2.681 3.221-2.681 6.53 0 3.033.825 5.032 2.523 6.112.357.229.481.728.282 1.125l-1.547 3.053a.751.751 0 01-.675.43.715.715 0 01-.273-.06c-.704-.311-2.356-.946-4.042-.912-1.312.026-2.644.457-3.566 1.757a.369.369 0 01-.301.162h-.001a.367.367 0 01-.3-.162c-.922-1.3-2.254-1.731-3.565-1.757-1.686-.034-3.338.601-4.043.912a.719.719 0 01-.273.06.75.75 0 01-.675-.43L.095 20.569c-.2-.396-.075-.896.282-1.125 1.698-1.08 2.523-3.079 2.523-6.112C2.9 10.023.849 7.499.22 6.804a.889.889 0 01-.043-1.119L1.715 3.66a.73.73 0 01.684-.292H2.4c.45.065.861.086 1.236.07C6.264 3.33 7.14 1.454 7.406.566c.103-.34.394-.569.72-.567h4.745c.327-.002.618.227.72.567.267.889 1.142 2.764 3.771 2.871.376.016.787-.005 1.237-.07h.001a.726.726 0 01.684.292l1.538 2.025a.887.887 0 01-.043 1.118z"/></svg>

<svg 
 xmlns="http://www.w3.org/2000/svg"
 xmlns:xlink="http://www.w3.org/1999/xlink"
 width="19px" height="22px">
<path fill-rule="evenodd"  fill="rgb(255, 255, 255)"
 d="M18.089,5.718 C17.958,5.912 17.705,5.954 17.525,5.813 C17.344,5.671 17.305,5.400 17.436,5.206 C17.537,5.058 17.637,4.916 17.735,4.782 L17.527,4.514 C17.372,4.522 17.219,4.526 17.068,4.526 L16.891,4.526 L16.891,4.528 C16.668,4.526 16.488,4.330 16.490,4.090 C16.492,3.850 16.675,3.657 16.898,3.659 L16.906,3.659 L17.068,3.659 C17.267,3.659 17.472,3.652 17.680,3.637 C17.809,3.628 17.935,3.686 18.018,3.792 L18.570,4.500 C18.694,4.661 18.694,4.895 18.570,5.056 C18.415,5.255 18.254,5.476 18.089,5.718 ZM17.130,6.470 C17.321,6.585 17.392,6.844 17.289,7.053 C17.049,7.512 16.837,7.987 16.655,8.477 C16.594,8.642 16.445,8.751 16.279,8.751 C16.228,8.751 16.177,8.741 16.130,8.720 C15.922,8.631 15.821,8.379 15.903,8.156 C16.099,7.631 16.326,7.120 16.584,6.628 C16.695,6.425 16.938,6.354 17.130,6.470 ZM16.104,9.549 C16.210,9.658 16.253,9.821 16.216,9.973 C16.104,10.482 16.030,10.999 15.993,11.521 C15.978,11.749 15.802,11.925 15.589,11.924 L15.559,11.924 C15.452,11.916 15.353,11.861 15.283,11.774 C15.213,11.687 15.178,11.573 15.186,11.458 C15.226,10.891 15.307,10.328 15.429,9.773 C15.459,9.620 15.565,9.495 15.705,9.448 C15.846,9.401 15.998,9.440 16.104,9.549 ZM14.879,4.209 C14.840,4.209 14.801,4.203 14.764,4.191 C14.065,3.973 13.405,3.628 12.814,3.172 C12.691,3.084 12.621,2.930 12.635,2.771 C12.648,2.612 12.741,2.474 12.877,2.411 C13.013,2.348 13.171,2.370 13.287,2.468 C13.805,2.867 14.381,3.168 14.993,3.358 C15.186,3.419 15.309,3.623 15.280,3.837 C15.251,4.051 15.080,4.210 14.879,4.209 ZM11.668,1.693 C11.521,1.704 11.381,1.628 11.301,1.496 C11.187,1.317 11.080,1.131 10.980,0.940 L10.414,0.940 C10.191,0.940 10.010,0.745 10.010,0.506 C10.010,0.266 10.191,0.072 10.414,0.072 L11.223,0.072 C11.374,0.072 11.513,0.163 11.582,0.308 C11.697,0.549 11.826,0.782 11.968,1.006 C12.054,1.133 12.069,1.301 12.007,1.444 C11.944,1.587 11.815,1.682 11.668,1.693 ZM10.542,20.900 C10.647,21.112 10.573,21.374 10.376,21.487 C10.153,21.614 9.939,21.757 9.735,21.916 C9.594,22.024 9.404,22.024 9.263,21.916 C9.058,21.757 8.844,21.614 8.622,21.487 C8.494,21.414 8.413,21.274 8.408,21.119 C8.403,20.964 8.476,20.818 8.598,20.735 C8.721,20.654 8.875,20.648 9.002,20.721 C9.172,20.820 9.337,20.923 9.499,21.036 C9.660,20.923 9.826,20.818 9.995,20.721 C10.192,20.608 10.437,20.688 10.542,20.900 ZM8.583,0.940 L8.017,0.940 C7.917,1.131 7.810,1.317 7.697,1.496 C7.621,1.614 7.496,1.685 7.362,1.685 L7.362,1.685 C7.212,1.684 7.075,1.595 7.005,1.453 C6.935,1.310 6.944,1.138 7.029,1.006 C7.171,0.782 7.300,0.549 7.414,0.308 C7.484,0.162 7.623,0.072 7.774,0.072 L8.583,0.072 C8.806,0.072 8.987,0.266 8.987,0.506 C8.987,0.745 8.806,0.940 8.583,0.940 ZM4.232,4.191 C4.195,4.204 4.156,4.209 4.117,4.209 C3.916,4.210 3.745,4.051 3.716,3.837 C3.687,3.623 3.810,3.419 4.003,3.358 C4.615,3.169 5.192,2.868 5.709,2.468 C5.891,2.328 6.143,2.372 6.274,2.566 C6.405,2.760 6.364,3.032 6.183,3.172 C5.592,3.629 4.931,3.973 4.232,4.191 ZM3.719,11.788 C3.649,11.875 3.550,11.928 3.442,11.937 L3.412,11.937 C3.200,11.938 3.024,11.762 3.008,11.534 C2.972,11.012 2.899,10.494 2.787,9.986 L2.788,9.986 C2.755,9.836 2.800,9.678 2.905,9.571 C3.010,9.465 3.160,9.427 3.299,9.472 C3.437,9.517 3.543,9.637 3.576,9.788 C3.697,10.342 3.777,10.905 3.816,11.473 C3.824,11.587 3.789,11.701 3.719,11.788 ZM2.721,8.761 C2.555,8.761 2.406,8.652 2.345,8.486 C2.163,7.997 1.951,7.520 1.711,7.061 C1.605,6.852 1.675,6.590 1.869,6.474 C2.062,6.358 2.307,6.430 2.417,6.637 C2.675,7.130 2.902,7.640 3.097,8.166 C3.146,8.300 3.131,8.451 3.055,8.570 C2.980,8.689 2.855,8.761 2.721,8.761 ZM2.106,4.528 L1.929,4.528 C1.779,4.528 1.626,4.524 1.471,4.516 L1.262,4.784 C1.361,4.919 1.460,5.060 1.562,5.208 C1.694,5.402 1.655,5.673 1.474,5.814 C1.294,5.956 1.041,5.914 0.909,5.720 C0.745,5.478 0.583,5.257 0.428,5.057 C0.305,4.896 0.305,4.664 0.428,4.503 L0.981,3.792 C1.064,3.686 1.189,3.628 1.318,3.637 C1.526,3.652 1.731,3.659 1.930,3.659 L2.092,3.659 C2.316,3.655 2.500,3.846 2.504,4.086 C2.508,4.326 2.330,4.523 2.106,4.528 ZM1.017,18.847 C1.170,18.673 1.425,18.665 1.588,18.829 C1.750,18.993 1.758,19.266 1.607,19.441 C1.488,19.577 1.364,19.708 1.236,19.835 L1.534,20.410 C1.687,20.361 1.846,20.313 2.011,20.266 C2.153,20.221 2.305,20.263 2.410,20.373 C2.515,20.485 2.555,20.648 2.515,20.800 C2.475,20.953 2.361,21.069 2.218,21.105 C1.949,21.182 1.696,21.262 1.464,21.342 C1.424,21.356 1.382,21.363 1.340,21.363 C1.193,21.363 1.058,21.278 0.987,21.140 L0.370,19.950 C0.277,19.768 0.316,19.539 0.465,19.406 C0.660,19.232 0.844,19.045 1.017,18.847 ZM2.018,18.208 C1.825,18.087 1.761,17.821 1.873,17.615 C2.116,17.167 2.317,16.695 2.474,16.205 C2.548,15.979 2.778,15.859 2.989,15.938 C3.199,16.018 3.310,16.264 3.236,16.490 C3.062,17.034 2.838,17.557 2.569,18.053 C2.497,18.187 2.364,18.268 2.220,18.268 C2.149,18.268 2.079,18.248 2.018,18.208 ZM3.238,15.199 C3.214,15.199 3.190,15.196 3.166,15.192 C3.061,15.172 2.967,15.108 2.906,15.013 C2.845,14.918 2.821,14.802 2.840,14.689 C2.925,14.168 2.981,13.643 3.007,13.115 C3.022,12.877 3.212,12.694 3.434,12.706 C3.657,12.719 3.827,12.924 3.814,13.163 C3.786,13.726 3.727,14.286 3.635,14.841 C3.601,15.048 3.433,15.199 3.238,15.199 ZM3.396,19.950 C3.864,19.868 4.335,19.817 4.809,19.795 L4.809,19.794 C4.953,19.788 5.090,19.865 5.167,19.996 C5.244,20.127 5.251,20.293 5.183,20.430 C5.116,20.567 4.986,20.656 4.842,20.662 C4.400,20.683 3.961,20.732 3.524,20.808 C3.503,20.811 3.481,20.813 3.460,20.813 C3.249,20.812 3.075,20.638 3.058,20.413 C3.041,20.187 3.189,19.986 3.396,19.950 ZM6.239,19.840 C6.718,19.894 7.191,19.992 7.654,20.135 L7.655,20.135 C7.849,20.195 7.972,20.398 7.943,20.613 C7.915,20.828 7.744,20.986 7.543,20.986 C7.504,20.986 7.466,20.980 7.429,20.969 C7.013,20.840 6.586,20.751 6.154,20.703 C6.011,20.687 5.886,20.589 5.827,20.448 C5.768,20.306 5.785,20.142 5.870,20.016 C5.955,19.891 6.095,19.823 6.239,19.840 ZM11.347,20.134 C11.810,19.991 12.284,19.893 12.763,19.840 L12.764,19.840 C12.986,19.814 13.185,19.987 13.209,20.226 C13.232,20.464 13.071,20.678 12.849,20.703 C12.417,20.751 11.991,20.840 11.574,20.968 C11.435,21.011 11.285,20.972 11.180,20.865 C11.076,20.758 11.033,20.598 11.067,20.448 C11.102,20.297 11.209,20.177 11.347,20.134 ZM14.192,19.795 C14.665,19.817 15.137,19.869 15.604,19.950 C15.812,19.986 15.959,20.188 15.942,20.413 C15.926,20.638 15.751,20.812 15.541,20.813 C15.519,20.813 15.497,20.811 15.476,20.808 C15.040,20.732 14.600,20.683 14.159,20.662 C13.936,20.652 13.763,20.451 13.772,20.211 C13.787,19.974 13.972,19.792 14.192,19.795 ZM15.758,15.189 C15.562,15.189 15.394,15.038 15.359,14.831 C15.269,14.276 15.209,13.715 15.181,13.153 C15.169,12.913 15.340,12.708 15.564,12.694 C15.787,12.682 15.978,12.865 15.990,13.105 C16.016,13.633 16.072,14.158 16.157,14.679 C16.176,14.792 16.152,14.908 16.091,15.003 C16.029,15.098 15.935,15.162 15.830,15.182 C15.806,15.186 15.782,15.189 15.758,15.189 ZM16.008,15.928 C16.219,15.849 16.449,15.969 16.523,16.195 C16.679,16.685 16.880,17.157 17.122,17.605 C17.197,17.738 17.200,17.906 17.128,18.042 C17.057,18.179 16.922,18.263 16.776,18.263 C16.630,18.263 16.496,18.179 16.424,18.043 C16.155,17.547 15.932,17.023 15.759,16.480 C15.686,16.254 15.798,16.007 16.008,15.928 ZM16.987,20.266 C17.152,20.313 17.311,20.361 17.464,20.410 L17.762,19.835 C17.633,19.708 17.510,19.577 17.391,19.441 C17.292,19.328 17.256,19.167 17.298,19.018 C17.339,18.869 17.452,18.756 17.593,18.720 C17.734,18.685 17.882,18.733 17.981,18.847 C18.154,19.045 18.338,19.232 18.533,19.406 C18.682,19.539 18.721,19.768 18.627,19.950 L18.011,21.140 C17.940,21.278 17.805,21.363 17.658,21.363 C17.616,21.363 17.574,21.356 17.534,21.342 C17.302,21.262 17.049,21.182 16.780,21.105 C16.637,21.069 16.523,20.953 16.483,20.800 C16.443,20.648 16.483,20.485 16.587,20.373 C16.692,20.263 16.845,20.221 16.987,20.266 Z"/>
 <path fill-rule="evenodd"  fill="rgb(0, 0, 0)"
 d="M20.779,6.802 C20.149,7.499 18.098,10.023 18.098,13.332 C18.098,16.365 18.923,18.364 20.621,19.444 C20.978,19.673 21.102,20.172 20.903,20.569 L19.356,23.622 C19.217,23.898 18.953,24.056 18.681,24.052 C18.589,24.050 18.497,24.031 18.408,23.992 C17.704,23.681 16.052,23.046 14.366,23.080 C13.054,23.106 11.722,23.537 10.800,24.837 C10.728,24.940 10.616,24.999 10.499,24.999 C10.499,24.999 10.499,24.999 10.499,24.999 C10.499,24.999 10.499,24.999 10.498,24.999 C10.381,24.999 10.270,24.940 10.198,24.837 C9.276,23.537 7.944,23.106 6.633,23.080 C4.947,23.046 3.295,23.681 2.590,23.992 C2.501,24.031 2.408,24.050 2.317,24.052 C2.044,24.056 1.781,23.898 1.642,23.622 L0.095,20.569 C-0.105,20.173 0.020,19.673 0.377,19.444 C2.075,18.364 2.900,16.365 2.900,13.332 C2.900,10.023 0.849,7.499 0.220,6.804 C-0.057,6.500 -0.075,6.014 0.177,5.685 L1.715,3.660 C1.883,3.441 2.141,3.330 2.399,3.368 C2.400,3.368 2.400,3.368 2.400,3.368 C2.400,3.368 2.400,3.368 2.400,3.368 C2.850,3.433 3.261,3.454 3.636,3.438 C6.264,3.330 7.140,1.454 7.406,0.566 C7.509,0.226 7.800,-0.003 8.126,-0.001 L8.127,-0.001 L12.871,-0.001 L12.871,-0.001 C13.198,-0.003 13.489,0.226 13.591,0.566 C13.858,1.455 14.733,3.330 17.362,3.437 C17.738,3.453 18.149,3.432 18.599,3.367 C18.599,3.367 18.599,3.367 18.599,3.367 C18.599,3.367 18.600,3.367 18.600,3.367 C18.858,3.329 19.117,3.439 19.284,3.659 L20.822,5.684 C21.074,6.013 21.056,6.498 20.779,6.802 Z"/>
</svg>
